Icons/Bungeecord.svg

<svg xmlns="http://www.w3.org/2000/svg" xml:space="preserve" fill-rule="evenodd" stroke-linecap="round" stroke-linejoin="round" stroke-miterlimit="1.5" clip-rule="evenodd" viewBox="0 0 24 24"><path fill="none" d="M0 0h24v24H0z"/><path fill="none" stroke="#000" stroke-width="2" d="M2.394 18.055s3.189 5.231 6.582 3.963c4.243-1.587-3.865-10.832-6.286-11.122-2.421-.291 2.984 7.72 7.737 7.737 4.753.016 4.546-4.302 1.934-7.737C9.749 7.46 5.05 4.617 6.075 7.511c1.024 2.894 10.089 10.44 12.089 5.319 2-5.121-7.605-12.61-7.254-10.155.352 2.456 2.434 5.225 6.423 7.118 3.989 1.893 5.063-1.014 4.387-2.96"/></svg>

<?xml version="1.0" encoding="UTF-8" standalone="no"?>
<!DOCTYPE svg PUBLIC "-//W3C//DTD SVG 1.1//EN" "http://www.w3.org/Graphics/SVG/1.1/DTD/svg11.dtd">
<svg width="100%" height="100%" viewBox="0 0 24 24" version="1.1" xmlns="http://www.w3.org/2000/svg" xmlns:xlink="http://www.w3.org/1999/xlink" xml:space="preserve" xmlns:serif="http://www.serif.com/" style="fill-rule:evenodd;clip-rule:evenodd;stroke-linecap:round;stroke-linejoin:round;stroke-miterlimit:1.5;">
    <rect id="Bungeecord" x="-0" y="0" width="24" height="24" style="fill:none;"/>
    <path d="M2.394,18.055C2.394,18.055 5.583,23.286 8.976,22.018C13.219,20.431 5.111,11.186 2.69,10.896C0.269,10.605 5.674,18.616 10.427,18.633C15.18,18.649 14.973,14.331 12.361,10.896C9.749,7.46 5.05,4.617 6.075,7.511C7.099,10.405 16.164,17.951 18.164,12.83C20.164,7.709 10.559,0.22 10.91,2.675C11.262,5.131 13.344,7.9 17.333,9.793C21.322,11.686 22.396,8.779 21.72,6.833" style="fill:none;stroke:#000;stroke-width:2px;"/>
</svg>
